!!!COM: Bach, Johann Sebastian
!!!OCL: Ludwig Erk
!!!XEN: J.S. Bach Chorale Harmonizations
!!!OTL: Valet will ich dir geben
!!!ONM: No. 24
!!!PDT: 1850, 1865
!!!SCT: BWV 454
!!!YEC: Copyright 1994, David Huron
!!!YEM: Rights to all derivative electronic formats reserved.
!! J.S. Bach, 4-part Chorale harmonization No. 24
**kern	**kern	**kern	**kern
! bass	! tenor	! alto	! soprano
*M4/4	*M4/4	*M4/4	*M4/4
*D:	*D:	*D:	*D:
4D	4F#	4A	4d
=1	=1	=1	=1
4D	4F#	4d	4a
4F#	4A	4d	4a
4G	4G	4d	4b
4E	4G	4g	4cc#
=2	=2	=2	=2
4BB	4B	4g	4dd
4D	4A	4f#	4dd
4DD	4A	4f#	4dd
4d	4a	4a	4ff#
=3	=3	=3	=3
4A#	4g	4cc#	4ee
4B	4f#	4b	4dd
4G#	4f	4b	4dd
4A	4e	4a	4cc#
=4	=4	=4	=4
4D	4f#	4a	4dd
4D	4f#	4a	4dd
4D	4f#	4a	4dd
!! Repeat from the beginning.
4D	4F#	4A	4d
=1	=1	=1	=1
4D	4F#	4d	4a
4F#	4A	4d	4a
4G	4G	4d	4b
4E	4G	4g	4cc#
=2	=2	=2	=2
4BB	4B	4g	4dd
4D	4A	4f#	4dd
4DD	4A	4f#	4dd
4d	4a	4a	4ff#
=3	=3	=3	=3
4A#	4g	4cc#	4ee
4B	4f#	4b	4dd
4G#	4f	4b	4dd
4A	4e	4a	4cc#
=4	=4	=4	=4
4D	4f#	4a	4dd
4D	4f#	4a	4dd
4D	4f#	4a	4dd
!! Continuing.
4D	4f#	4a	4dd
=5	=5	=5	=5
4d	4a	4dd	4ff#
4B	4d	4dd	4ff#
4G#	4e	4b	4ee
4F#	4c#	4a	4ee
=6	=6	=6	=6
4A	4A	4e	4cc#
4F#	4G#	4g#	4cc#
4F#	4c#	4f#	4a
4F#	4f#	4a	4cc#
=7	=7	=7	=7
4B	4d	4a	4dd
4C#	4e	4a	4cc#
4E	4e	4a	4b
4E	4e	4g#	4b
=8	=8	=8	=8
4AA	4c#	4e	4a
4AA	4c#	4e	4a
4AA	4c#	4e	4a
4C#	4A	4e	4a
=9	=9	=9	=9
4D	4A	4d	4f#
4F#	4d	4d	4a
4G	4B	4d	4b
4F#	4d	4f#	4a
=10	=10	=10	=10
4D#	4B	4f#	4a
4E	4B	4e	4g
4BB	4B	4d#	4f#
4FF#	4c	4d	4a
=11	=11	=11	=11
4GG	4B	4d	4g
4BB	4B	4d	4f#
4GG	4B	4d	4e
4AA	4A	4c#	4e
=12	=12	=12	=12
4DD	4F#	4A	4d
4DD	4F#	4A	4d
4DD	4F#	4A	4d
====	====	====	====
*-	*-	*-	*-
!!!CDT: 1685/3//-1750/7/28
!!!OCY: Deutschland
!!!ODT: <1750
!!!PDT: 1784/-1787/
!!!AFR: chorale harmonization; four-part hymn
!!!AST: homophony
!!!AMT: simple quadruple
!!!SCA: Bach-Werke-Verzeichnis
!!!YOR: Ludwig Erk, Peters Editions of 1850, 1865; revised in light of
!!!YOR: Friedrich Smend, Peters Edition of 1932 & Albert Riemenschneider, 1941.
!!!AIN: vox
!!!EEV: 1.0
!!!RDT: 1987 September
!!!YER: 1995 March 1
!!!VTS: 
